public/images/sponsors/level-star/gold.svg

<svg xmlns="http://www.w3.org/2000/svg" width="53" height="53" viewBox="0 0 53 53" fill="none">
    <rect x="1.5" y="1.5" width="50" height="50" rx="3.5" fill="#FCC018" stroke="black" stroke-width="3"/>
    <path d="M24.1224 13.4635L25.5489 13.927L24.1224 13.4635L21.9302 20.2102H14.8363C12.4145 20.2102 11.4076 23.3093 13.3668 24.7328L19.1059 28.9025L16.9138 35.6492C16.1654 37.9525 18.8016 39.8678 20.7609 38.4443L26.5 34.2746L32.2391 38.4443C34.1984 39.8678 36.8346 37.9525 36.0862 35.6492L33.8941 28.9025L39.6332 24.7328C41.5924 23.3093 40.5855 20.2102 38.1637 20.2102H31.0698L28.8776 13.4635C28.1293 11.1603 24.8707 11.1602 24.1224 13.4635ZM26.7939 34.0611C26.7937 34.0612 26.7935 34.0613 26.7933 34.0615L26.7939 34.0611ZM26.2067 34.0615C26.2065 34.0613 26.2063 34.0612 26.2061 34.0611L26.2067 34.0615ZM33.7818 28.557C33.7819 28.5572 33.782 28.5575 33.782 28.5577L33.7818 28.557Z" fill="white" stroke="black" stroke-width="3"/>
</svg>

<?xml version="1.0" encoding="UTF-8"?>
<svg clip-rule="evenodd" fill-rule="evenodd" version="1.1" viewBox="0 0 53 53" xml:space="preserve" xmlns="http://www.w3.org/2000/svg">
    <path d="m51.5 5c0-1.932-1.568-3.5-3.5-3.5h-43c-1.932 0-3.5 1.568-3.5 3.5v43c0 1.932 1.568 3.5 3.5 3.5h43c1.932 0 3.5-1.568 3.5-3.5v-43z" fill="#fcc018" stroke="#000" stroke-width="3px"/>
    <path d="m24.122 13.464-2.192 6.746h-7.094c-2.421 0-3.428 3.099-1.469 4.523l5.739 4.17-2.192 6.746c-0.749 2.304 1.888 4.219 3.847 2.795l5.739-4.169 5.739 4.169c1.959 1.424 4.596-0.491 3.847-2.795l-2.192-6.746 5.739-4.17c1.959-1.424 0.953-4.523-1.469-4.523h-7.094l-2.192-6.746c-0.749-2.304-4.007-2.304-4.756 0z" fill="#fff" fill-rule="nonzero" stroke="#000" stroke-width="3px"/>
</svg>
